src/Mod/TechDraw/Gui/Resources/icons/TechDraw_ExtensionAreaAnnotation.svg

<?xml version="1.0" encoding="UTF-8"?>
<!DOCTYPE svg  PUBLIC '-//W3C//DTD SVG 1.1//EN'  'http://www.w3.org/Graphics/SVG/1.1/DTD/svg11.dtd'>
<svg width="8.47mm" height="8.47mm" fill-rule="evenodd" stroke-linejoin="round" stroke-width="28.222" preserveAspectRatio="xMidYMid" version="1.2" viewBox="0 0 847 847" xml:space="preserve" xmlns="http://www.w3.org/2000/svg">
 <defs class="ClipPathGroup">
  <clipPath id="presentation_clip_path">
   <rect width="847" height="847"/>
  </clipPath>
 </defs>
 <defs>
  <font id="EmbeddedFont_1" horiz-adv-x="2048">
   <font-face font-family="Liberation Sans embedded" font-weight="bold" ascent="1852" descent="423" units-per-em="2048"/>
   <missing-glyph d="M 0,0 L 2047,0 2047,2047 0,2047 0,0 Z" horiz-adv-x="2048"/>
   <glyph d="M 1133,0 L 1008,360 471,360 346,0 51,0 565,1409 913,1409 1425,0 1133,0 Z M 739,1192 L 733,1170 C 726,1146 718,1119 709,1088 700,1057 642,889 537,582 L 942,582 803,987 760,1123 739,1192 Z" horiz-adv-x="1351" unicode="A"/>
   <glyph d="M 71,0 L 71,195 C 108,276 160,354 228,431 295,508 380,588 483,671 582,751 651,817 691,869 730,921 750,972 750,1022 750,1145 688,1206 565,1206 505,1206 459,1190 428,1158 396,1125 375,1077 366,1012 L 83,1028 C 99,1159 148,1258 230,1327 311,1396 422,1430 563,1430 715,1430 832,1395 913,1326 994,1257 1035,1159 1035,1034 1035,968 1022,908 996,855 970,802 937,753 896,708 855,663 810,620 761,581 711,542 663,503 616,466 569,429 527,391 489,353 450,315 422,274 403,231 L 1057,231 1057,0 71,0 Z" horiz-adv-x="1006" unicode="2"/>
  </font>
 </defs>
 <defs class="EmbeddedBulletChars">
 </defs>
 <g class="SlideGroup">
   <g id="container-id1">
    <g id="id1" class="Slide" clip-path="url(#presentation_clip_path)">
     <g class="Page">
      <g class="Graphic">
       <g id="id3">
        <rect class="BoundingBox" width="847" height="847" fill="none"/>
        <defs>
         <clipPath id="clip_path_1">
          <path d="m0 0h846v846h-846v-846z"/>
         </clipPath>
        </defs>
        <g clip-path="url(#clip_path_1)">
         <path d="m415 105h-293v-33h586v33h-293z" fill="#f00"/>
         <path d="m415 105h-293v-33h586v33h-293z" fill="none" stroke="#f00" stroke-linejoin="miter" stroke-width="25"/>
         <path d="m117 420v293h-33v-587h33v294z" fill="#f00"/>
         <path d="m117 420v293h-33v-587h33v294z" fill="none" stroke="#f00" stroke-linejoin="miter" stroke-width="25"/>
         <path d="m775 416v293h-33v-586h33v293z" fill="#f00"/>
         <path d="m775 416v293h-33v-586h33v293z" fill="none" stroke="#f00" stroke-linejoin="miter" stroke-width="25"/>
         <path d="m89 739v-38h658v75h-658v-37z" fill="#ff0"/>
         <path d="m89 739v-38h658v75h-658v-37z" fill="none" stroke="#2b2200" stroke-linejoin="round" stroke-width="25"/>
         <path d="m89 97v-38h658v76h-658v-38z" fill="#ff0"/>
         <path d="m89 97v-38h658v76h-658v-38z" fill="none" stroke="#2b2200" stroke-linejoin="round" stroke-width="25"/>
         <path d="m749 92h37v658h-75v-658h38z" fill="#ff0"/>
         <path d="m749 92h37v658h-75v-658h38z" fill="none" stroke="#2b2200" stroke-linejoin="round" stroke-width="25"/>
         <path d="m100 92h38v658h-75v-658h37z" fill="#ff0"/>
         <path d="m100 92h38v658h-75v-658h37z" fill="none" stroke="#2b2200" stroke-linejoin="round" stroke-width="25"/>
         <path d="m18 747c0-14 4-29 11-41 8-13 18-24 31-31s28-11 43-11 30 4 43 11 23 18 31 31c7 12 11 27 11 41 0 15-4 29-11 42-8 13-18 23-31 31-13 7-28 11-43 11s-30-4-43-11c-13-8-23-18-31-31-7-13-11-27-11-42z" fill="#ff0"/>
         <path d="m18 747c0-14 4-29 11-41 8-13 18-24 31-31s28-11 43-11 30 4 43 11 23 18 31 31c7 12 11 27 11 41 0 15-4 29-11 42-8 13-18 23-31 31-13 7-28 11-43 11s-30-4-43-11c-13-8-23-18-31-31-7-13-11-27-11-42z" fill="none" stroke="#2b2200" stroke-linejoin="miter" stroke-width="32"/>
         <path d="m655 740c0-14 4-29 12-41 7-13 18-24 31-31s28-11 43-11 29 4 42 11 24 18 31 31c8 12 12 27 12 42 0 14-4 29-12 41-7 13-18 24-31 31s-27 11-42 11-30-4-43-11-24-18-31-31c-8-12-12-27-12-41v-1z" fill="#ff0"/>
         <path d="m655 740c0-14 4-29 12-41 7-13 18-24 31-31s28-11 43-11 29 4 42 11 24 18 31 31c8 12 12 27 12 42 0 14-4 29-12 41-7 13-18 24-31 31s-27 11-42 11-30-4-43-11-24-18-31-31c-8-12-12-27-12-41" fill="none" stroke="#2b2200" stroke-linejoin="miter" stroke-width="32"/>
         <path d="m17 99c0-15 4-29 11-42 8-13 18-23 31-31 13-7 28-11 43-11s30 4 43 11c13 8 23 18 31 31 7 13 11 27 11 42 0 14-4 29-11 41-8 13-18 24-31 31s-28 11-43 11-30-4-43-11-23-18-31-31c-7-12-11-27-11-41z" fill="#ff0"/>
         <path d="m17 99c0-15 4-29 11-42 8-13 18-23 31-31 13-7 28-11 43-11s30 4 43 11c13 8 23 18 31 31 7 13 11 27 11 42 0 14-4 29-11 41-8 13-18 24-31 31s-28 11-43 11-30-4-43-11-23-18-31-31c-7-12-11-27-11-41z" fill="none" stroke="#2b2200" stroke-linejoin="miter" stroke-width="32"/>
         <path d="m659 102c0-15 4-29 11-42 8-13 18-23 31-31 13-7 28-11 43-11s30 4 43 11c13 8 23 18 31 31 7 13 11 27 11 42s-4 29-11 42c-8 12-18 23-31 30-13 8-28 12-43 12s-30-4-43-12c-13-7-23-18-31-30-7-13-11-27-11-42z" fill="#ff0"/>
         <path d="m659 102c0-15 4-29 11-42 8-13 18-23 31-31 13-7 28-11 43-11s30 4 43 11c13 8 23 18 31 31 7 13 11 27 11 42s-4 29-11 42c-8 12-18 23-31 30-13 8-28 12-43 12s-30-4-43-12c-13-7-23-18-31-30-7-13-11-27-11-42z" fill="none" stroke="#2b2200" stroke-linejoin="miter" stroke-width="32"/>
        </g>
       </g>
      </g>
     </g>
    </g>
   </g>
 </g>
</svg>

<?xml version="1.0" encoding="UTF-8"?>
<!DOCTYPE svg PUBLIC "-//W3C//DTD SVG 1.1//EN" "http://www.w3.org/Graphics/SVG/1.1/DTD/svg11.dtd">
<svg version="1.2" width="8.47mm" height="8.47mm" viewBox="0 0 847 847" preserveAspectRatio="xMidYMid" fill-rule="evenodd" stroke-width="28.222" stroke-linejoin="round" xmlns="http://www.w3.org/2000/svg" xmlns:ooo="http://xml.openoffice.org/svg/export" xmlns:xlink="http://www.w3.org/1999/xlink" xmlns:presentation="http://sun.com/xmlns/staroffice/presentation" xmlns:smil="http://www.w3.org/2001/SMIL20/" xmlns:anim="urn:oasis:names:tc:opendocument:xmlns:animation:1.0" xml:space="preserve">
 <defs class="ClipPathGroup">
  <clipPath id="presentation_clip_path" clipPathUnits="userSpaceOnUse">
   <rect x="0" y="0" width="847" height="847"/>
  </clipPath>
  <clipPath id="presentation_clip_path_shrink" clipPathUnits="userSpaceOnUse">
   <rect x="0" y="0" width="846" height="846"/>
  </clipPath>
 </defs>
 <defs>
  <font id="EmbeddedFont_1" horiz-adv-x="2048">
   <font-face font-family="Liberation Sans embedded" units-per-em="2048" font-weight="bold" font-style="normal" ascent="1852" descent="423"/>
   <missing-glyph horiz-adv-x="2048" d="M 0,0 L 2047,0 2047,2047 0,2047 0,0 Z"/>
   <glyph unicode="A" horiz-adv-x="1351" d="M 1133,0 L 1008,360 471,360 346,0 51,0 565,1409 913,1409 1425,0 1133,0 Z M 739,1192 L 733,1170 C 726,1146 718,1119 709,1088 700,1057 642,889 537,582 L 942,582 803,987 760,1123 739,1192 Z"/>
   <glyph unicode="2" horiz-adv-x="1006" d="M 71,0 L 71,195 C 108,276 160,354 228,431 295,508 380,588 483,671 582,751 651,817 691,869 730,921 750,972 750,1022 750,1145 688,1206 565,1206 505,1206 459,1190 428,1158 396,1125 375,1077 366,1012 L 83,1028 C 99,1159 148,1258 230,1327 311,1396 422,1430 563,1430 715,1430 832,1395 913,1326 994,1257 1035,1159 1035,1034 1035,968 1022,908 996,855 970,802 937,753 896,708 855,663 810,620 761,581 711,542 663,503 616,466 569,429 527,391 489,353 450,315 422,274 403,231 L 1057,231 1057,0 71,0 Z"/>
  </font>
 </defs>
 <defs class="TextShapeIndex">
  <g ooo:slide="id1" ooo:id-list="id3 id4 id5"/>
 </defs>
 <defs class="EmbeddedBulletChars">
  <g id="bullet-char-template-57356" transform="scale(0.00048828125,-0.00048828125)">
   <path d="M 580,1141 L 1163,571 580,0 -4,571 580,1141 Z"/>
  </g>
  <g id="bullet-char-template-57354" transform="scale(0.00048828125,-0.00048828125)">
   <path d="M 8,1128 L 1137,1128 1137,0 8,0 8,1128 Z"/>
  </g>
  <g id="bullet-char-template-10146" transform="scale(0.00048828125,-0.00048828125)">
   <path d="M 174,0 L 602,739 174,1481 1456,739 174,0 Z M 1358,739 L 309,1346 659,739 1358,739 Z"/>
  </g>
  <g id="bullet-char-template-10132" transform="scale(0.00048828125,-0.00048828125)">
   <path d="M 2015,739 L 1276,0 717,0 1260,543 174,543 174,936 1260,936 717,1481 1274,1481 2015,739 Z"/>
  </g>
  <g id="bullet-char-template-10007" transform="scale(0.00048828125,-0.00048828125)">
   <path d="M 0,-2 C -7,14 -16,27 -25,37 L 356,567 C 262,823 215,952 215,954 215,979 228,992 255,992 264,992 276,990 289,987 310,991 331,999 354,1012 L 381,999 492,748 772,1049 836,1024 860,1049 C 881,1039 901,1025 922,1006 886,937 835,863 770,784 769,783 710,716 594,584 L 774,223 C 774,196 753,168 711,139 L 727,119 C 717,90 699,76 672,76 641,76 570,178 457,381 L 164,-76 C 142,-110 111,-127 72,-127 30,-127 9,-110 8,-76 1,-67 -2,-52 -2,-32 -2,-23 -1,-13 0,-2 Z"/>
  </g>
  <g id="bullet-char-template-10004" transform="scale(0.00048828125,-0.00048828125)">
   <path d="M 285,-33 C 182,-33 111,30 74,156 52,228 41,333 41,471 41,549 55,616 82,672 116,743 169,778 240,778 293,778 328,747 346,684 L 369,508 C 377,444 397,411 428,410 L 1163,1116 C 1174,1127 1196,1133 1229,1133 1271,1133 1292,1118 1292,1087 L 1292,965 C 1292,929 1282,901 1262,881 L 442,47 C 390,-6 338,-33 285,-33 Z"/>
  </g>
  <g id="bullet-char-template-9679" transform="scale(0.00048828125,-0.00048828125)">
   <path d="M 813,0 C 632,0 489,54 383,161 276,268 223,411 223,592 223,773 276,916 383,1023 489,1130 632,1184 813,1184 992,1184 1136,1130 1245,1023 1353,916 1407,772 1407,592 1407,412 1353,268 1245,161 1136,54 992,0 813,0 Z"/>
  </g>
  <g id="bullet-char-template-8226" transform="scale(0.00048828125,-0.00048828125)">
   <path d="M 346,457 C 273,457 209,483 155,535 101,586 74,649 74,723 74,796 101,859 155,911 209,963 273,989 346,989 419,989 480,963 531,910 582,859 608,796 608,723 608,648 583,586 532,535 482,483 420,457 346,457 Z"/>
  </g>
  <g id="bullet-char-template-8211" transform="scale(0.00048828125,-0.00048828125)">
   <path d="M -4,459 L 1135,459 1135,606 -4,606 -4,459 Z"/>
  </g>
  <g id="bullet-char-template-61548" transform="scale(0.00048828125,-0.00048828125)">
   <path d="M 173,740 C 173,903 231,1043 346,1159 462,1274 601,1332 765,1332 928,1332 1067,1274 1183,1159 1299,1043 1357,903 1357,740 1357,577 1299,437 1183,322 1067,206 928,148 765,148 601,148 462,206 346,322 231,437 173,577 173,740 Z"/>
  </g>
 </defs>
 <g>
  <g id="id2" class="Master_Slide">
   <g id="bg-id2" class="Background"/>
   <g id="bo-id2" class="BackgroundObjects"/>
  </g>
 </g>
 <g class="SlideGroup">
  <g>
   <g id="container-id1">
    <g id="id1" class="Slide" clip-path="url(#presentation_clip_path)">
     <g class="Page">
      <g class="Graphic">
       <g id="id3">
        <rect class="BoundingBox" stroke="none" fill="none" x="0" y="0" width="847" height="847"/>
        <defs>
         <clipPath id="clip_path_1" clipPathUnits="userSpaceOnUse">
          <path d="M 0,0 L 846,0 846,846 0,846 0,0 Z"/>
         </clipPath>
        </defs>
        <g clip-path="url(#clip_path_1)">
         <path fill="rgb(255,0,0)" stroke="none" d="M 415,105 L 122,105 122,72 708,72 708,105 415,105 Z"/>
         <path fill="none" stroke="rgb(255,0,0)" stroke-width="25" stroke-linejoin="miter" d="M 415,105 L 122,105 122,72 708,72 708,105 415,105 Z"/>
         <path fill="rgb(255,0,0)" stroke="none" d="M 117,420 L 117,713 84,713 84,126 117,126 117,420 Z"/>
         <path fill="none" stroke="rgb(255,0,0)" stroke-width="25" stroke-linejoin="miter" d="M 117,420 L 117,713 84,713 84,126 117,126 117,420 Z"/>
         <path fill="rgb(255,0,0)" stroke="none" d="M 775,416 L 775,709 742,709 742,123 775,123 775,416 Z"/>
         <path fill="none" stroke="rgb(255,0,0)" stroke-width="25" stroke-linejoin="miter" d="M 775,416 L 775,709 742,709 742,123 775,123 775,416 Z"/>
         <path fill="rgb(255,255,0)" stroke="none" d="M 89,739 L 89,701 747,701 747,776 89,776 89,739 Z"/>
         <path fill="none" stroke="rgb(43,34,0)" stroke-width="25" stroke-linejoin="round" d="M 89,739 L 89,701 747,701 747,776 89,776 89,739 Z"/>
         <path fill="rgb(255,255,0)" stroke="none" d="M 89,97 L 89,59 747,59 747,135 89,135 89,97 Z"/>
         <path fill="none" stroke="rgb(43,34,0)" stroke-width="25" stroke-linejoin="round" d="M 89,97 L 89,59 747,59 747,135 89,135 89,97 Z"/>
         <path fill="rgb(255,255,0)" stroke="none" d="M 749,92 L 786,92 786,750 711,750 711,92 749,92 Z"/>
         <path fill="none" stroke="rgb(43,34,0)" stroke-width="25" stroke-linejoin="round" d="M 749,92 L 786,92 786,750 711,750 711,92 749,92 Z"/>
         <path fill="rgb(255,255,0)" stroke="none" d="M 100,92 L 138,92 138,750 63,750 63,92 100,92 Z"/>
         <path fill="none" stroke="rgb(43,34,0)" stroke-width="25" stroke-linejoin="round" d="M 100,92 L 138,92 138,750 63,750 63,92 100,92 Z"/>
         <path fill="rgb(255,255,0)" stroke="none" d="M 18,747 C 18,733 22,718 29,706 37,693 47,682 60,675 73,668 88,664 103,664 103,664 103,664 103,664 118,664 133,668 146,675 159,682 169,693 177,706 184,718 188,733 188,747 188,747 188,747 188,747 188,762 184,776 177,789 169,802 159,812 146,820 133,827 118,831 103,831 103,831 103,831 103,831 88,831 73,827 60,820 47,812 37,802 29,789 22,776 18,762 18,747 L 18,747 Z"/>
         <path fill="none" stroke="rgb(43,34,0)" stroke-width="32" stroke-linejoin="miter" d="M 18,747 L 18,747 C 18,733 22,718 29,706 37,693 47,682 60,675 73,668 88,664 103,664 103,664 103,664 103,664 L 103,664 C 118,664 133,668 146,675 159,682 169,693 177,706 184,718 188,733 188,747 188,747 188,747 188,747 L 188,747 C 188,762 184,776 177,789 169,802 159,812 146,820 133,827 118,831 103,831 103,831 103,831 103,831 L 103,831 C 88,831 73,827 60,820 47,812 37,802 29,789 22,776 18,762 18,747 Z"/>
         <path fill="rgb(255,255,0)" stroke="none" d="M 655,740 C 655,726 659,711 667,699 674,686 685,675 698,668 711,661 726,657 741,657 741,657 741,657 741,657 756,657 770,661 783,668 796,675 807,686 814,699 822,711 826,726 826,741 826,741 826,741 826,741 826,755 822,770 814,782 807,795 796,806 783,813 770,820 756,824 741,824 741,824 741,824 741,824 726,824 711,820 698,813 685,806 674,795 667,782 659,770 655,755 655,741 L 655,740 Z"/>
         <path fill="none" stroke="rgb(43,34,0)" stroke-width="32" stroke-linejoin="miter" d="M 655,740 L 655,740 C 655,726 659,711 667,699 674,686 685,675 698,668 711,661 726,657 741,657 741,657 741,657 741,657 L 741,657 C 756,657 770,661 783,668 796,675 807,686 814,699 822,711 826,726 826,741 826,741 826,741 826,741 L 826,741 C 826,755 822,770 814,782 807,795 796,806 783,813 770,820 756,824 741,824 741,824 741,824 741,824 L 741,824 C 726,824 711,820 698,813 685,806 674,795 667,782 659,770 655,755 655,741"/>
         <path fill="rgb(255,255,0)" stroke="none" d="M 17,99 C 17,84 21,70 28,57 36,44 46,34 59,26 72,19 87,15 102,15 102,15 102,15 102,15 117,15 132,19 145,26 158,34 168,44 176,57 183,70 187,84 187,99 187,99 187,99 187,99 187,113 183,128 176,140 168,153 158,164 145,171 132,178 117,182 102,182 102,182 102,182 102,182 87,182 72,178 59,171 46,164 36,153 28,140 21,128 17,113 17,99 L 17,99 Z"/>
         <path fill="none" stroke="rgb(43,34,0)" stroke-width="32" stroke-linejoin="miter" d="M 17,99 L 17,99 C 17,84 21,70 28,57 36,44 46,34 59,26 72,19 87,15 102,15 102,15 102,15 102,15 L 102,15 C 117,15 132,19 145,26 158,34 168,44 176,57 183,70 187,84 187,99 187,99 187,99 187,99 L 187,99 C 187,113 183,128 176,140 168,153 158,164 145,171 132,178 117,182 102,182 102,182 102,182 102,182 L 102,182 C 87,182 72,178 59,171 46,164 36,153 28,140 21,128 17,113 17,99 Z"/>
         <path fill="rgb(255,255,0)" stroke="none" d="M 659,102 C 659,87 663,73 670,60 678,47 688,37 701,29 714,22 729,18 744,18 744,18 744,18 744,18 759,18 774,22 787,29 800,37 810,47 818,60 825,73 829,87 829,102 829,102 829,102 829,102 829,117 825,131 818,144 810,156 800,167 787,174 774,182 759,186 744,186 744,186 744,186 744,186 729,186 714,182 701,174 688,167 678,156 670,144 663,131 659,117 659,102 L 659,102 Z"/>
         <path fill="none" stroke="rgb(43,34,0)" stroke-width="32" stroke-linejoin="miter" d="M 659,102 L 659,102 C 659,87 663,73 670,60 678,47 688,37 701,29 714,22 729,18 744,18 744,18 744,18 744,18 L 744,18 C 759,18 774,22 787,29 800,37 810,47 818,60 825,73 829,87 829,102 829,102 829,102 829,102 L 829,102 C 829,117 825,131 818,144 810,156 800,167 787,174 774,182 759,186 744,186 744,186 744,186 744,186 L 744,186 C 729,186 714,182 701,174 688,167 678,156 670,144 663,131 659,117 659,102 Z"/>
        </g>
       </g>
      </g>
      <g class="com.sun.star.drawing.TextShape">
       <g id="id4">
        <rect class="BoundingBox" stroke="none" fill="none" x="243" y="40" width="333" height="807"/>
        <text class="TextShape"><tspan class="TextParagraph" font-family="Liberation Sans, sans-serif" font-size="494px" font-weight="700"><tspan class="TextPosition" x="231" y="614"><tspan fill="rgb(255,0,0)" stroke="none">A</tspan></tspan></tspan></text>
       </g>
      </g>
      <g class="com.sun.star.drawing.TextShape">
       <g id="id5">
        <rect class="BoundingBox" stroke="none" fill="none" x="491" y="45" width="244" height="490"/>
        <text class="TextShape"><tspan class="TextParagraph" font-family="Liberation Sans, sans-serif" font-size="212px" font-weight="700"><tspan class="TextPosition" x="484" y="361"><tspan fill="rgb(255,0,0)" stroke="none">2</tspan></tspan></tspan></text>
       </g>
      </g>
     </g>
    </g>
   </g>
  </g>
 </g>
</svg>
